X:46
T:Davy Lowston (2)
Z:Digital Tradition <//sniff.numachi.com/~rickheit/dtrad/
M:4/4
L:1/4
K:D
A,| D3/2 D/2 D D| D3/2 D/2 C E| D z C A,| A, z2 A,|
F3/2 F/2 F F|F3/2 F/2 E G| F2 z2| z2 D F|
A/2 A A3/2 A| A z E F| G/2 F E3/2 D|
C z C C| B,4| z2C/2-D/2 C| B,4| z2 B, B,| A,4|]
%c.f. 46DLMc
